icon-themes/sifr_svg/cmd/sc_tablenumberformatdialog.svg

<svg viewBox="0 0 16 16" xmlns="http://www.w3.org/2000/svg"><path d="m8 0c-4.418278 0-8 3.581722-8 8s3.581722 8 8 8v-2c-3.3 0-6-2.686292-6-6 0-3.3 2.7-6 6-6 3.313708 0 6 2.7 6 6-.0026 1.05-.282865 2.1-.8125 3h-1.1875v-5c0-1.6568542-1.3-3-3-3h-3v2h3c.552285 0 1 .4477153 1 1v1h-3c-1.6568542 0-3 1.343146-3 3 0 1.7 1.3431458 3 3 3h7.244141c1.136335-1.418784 1.755616-3.182253 1.755859-5 0-4.418278-3.581722-8-8-8zm-1 9h3v2h-3c-.5522847 0-1-.447715-1-1s.4477153-1 1-1z" fill="#555753"/></svg>

<svg xmlns="http://www.w3.org/2000/svg" viewBox="0 0 16 16">
<path
   style="fill:#555753"
   d="M 8 0 C 3.581722 0 0 3.581722 0 8 C 0 12.418278 3.581722 16 8 16 L 8 14 C 4.7 14 2 11.313708 2 8 C 2 4.7 4.7 2 8 2 C 11.313708 2 14 4.7 14 8 C 13.9974 9.05 13.717135 10.1 13.1875 11 L 12 11 L 12 6 C 12 4.3431458 10.7 3 9 3 L 6 3 L 6 5 L 9 5 C 9.552285 5 10 5.4477153 10 6 L 10 7 L 7 7 C 5.3431458 7 4 8.343146 4 10 C 4 11.7 5.3431458 13 7 13 L 14.244141 13 C 15.380476 11.581216 15.999757 9.817747 16 8 C 16 3.581722 12.418278 0 8 0 z M 7 9 L 10 9 L 10 11 L 7 11 C 6.4477153 11 6 10.552285 6 10 C 6 9.447715 6.4477153 9 7 9 z "
   />
</svg>
